X:7387
T:The Sweets of May
O:england
C:Trad
M:6/8
L:1/8
K:G
|:d2c|B2B ABA|GAG G2A|B2B GAB|
c3d2c|BcB ABA|GAG GAB|c2A FEF|
G3:|
|:z3|A2A A2G|E2F G2B|A2B c2d|
e2d c2B|ABA A2G|E2F G2B|c2A B2G|
A3:|
|:B2c|d z2d3|DED D3|c z2c3|
DED DEF|G2D G2A|B2G B2c|d2d cBA|
G3:|


